!!!COM: Bach, Johann Sebastian
!!!OTL: Vater unser im Himmelreich
!!!ONM: No. 110
!!!OCL: Erk
!!!YOE: Riemenschneider, Albert
!!!OPR: 371 Harmonized Chorales and 69 Chorale Melodies with Figured Bass
!!!OPT: Bach Chorale Harmonizations
**kern	**kern	**kern	**kern
! bass	! tenor	! alto	! soprano
*M4/4	*M4/4	*M4/4	*M4/4
*c:	*c:	*c:	*c:
4C	4c	4e-	4g
=1	=1	=1	=1
4BBn	4G	4d	4g
4C	4G	4c	4e-
4A-	4c	8c	4f
.	.	8d	.
8E-	8c	8e-	8g
8F	8A-	8d	8f
=2	=2	=2	=2
4G	4G	4c	4e-
4GG	8G	4Bn	4d
.	8F	.	.
4C;	4E-;	4G;	4c;
4c	4c	4e-	4g
=3	=3	=3	=3
8G	4B-	4e-	4g
8A-	.	.	.
4B-	4B-	8d	4f
.	.	8e-	.
4D	4B-	4f	4b-
4E-	4B-	8e-	8g
.	.	8d	8f
=4	=4	=4	=4
4A-	4c	8c	4e-
.	.	8Bn	.
4AA-	4A-	8c	4f
.	.	8d	.
4GG;	4D;	4B-;	4g;
4C	4c	4e-	8g
.	.	.	8an
=5	=5	=5	=5
4G	4B-	4d	4b-
4F	4A-	8e-	8cc
.	.	8f	8dd
4E-	4G	4g	4ee-
8F	8An	4f	4dd
8G	8Bn	.	.
=6	=6	=6	=6
4A-	4c	8e-	4cc
.	.	8f	.
4G	4d	4g	4bn
4C;	4e-;	4g;	4cc;
4F	4An	4f	4cc
=7	=7	=7	=7
4B-	4B-	4f	4dd
4A	4c	4f#	4cc
4G	4d	4g	4b-
8C	8e-	8g	4a
8D	8d	8f#	.
=8	=8	=8	=8
4E-	8d	4g	4g
.	8c	.	.
4D	8c	4f#	4a
.	8Bn	.	.
4GG;	4B;	4d;	4g;
8F	4A	4fn	4cc
8E-	.	.	.
=9	=9	=9	=9
4D	4B-	4f	4b-
4C	4c	4e-	4a
4BB-	4F	4d	8b-
.	.	.	8a-
8C	4E-	8e-	4g
8BB-	.	8d	.
=10	=10	=10	=10
4AA-	4E-	4c	4g
4BB-	8B-	4d	4f
.	8A-	.	.
4E-;	4G;	4B-;	4e-;
4En	4c	4c	4g
=11	=11	=11	=11
4F	4c	4f	4a-
4G	4Bn	8e-	8g
.	.	8d	8f
8A-	8c	4c	4e-
8G	8B-	.	.
4F	4A-	8d	4f
.	.	8c	.
=12	=12	=12	=12
4G	4G	8Bn	4e-
.	.	8c	.
4GG	8G	8c	4d
.	8F	8B	.
4C;	4En;	4G;	4c;
==	==	==	==
*-	*-	*-	*-
!!!CDT: 1685/3//-1750/7/28
!!!OCY: Deutschland
!!!AGN: chorale
!!!AST: Baroque
!!!AIN: vox
!!!YOY: 1941
!!!PPP: New York; London
!!!PPR: G. Schirmer
!!!ENC: David Huron
!!!EED: David Huron
!!!YEN: United States of America
!!!YER: 1992
!!!YEC: Copyright 1992 David Huron
!!!YEM: Rights to all derivative electronic formats reserved.
!!!YER: March 20, 1996
!!!AMT: simple quadruple
!!!EEV: 1.1
